assets/imgs/icon-tv.svg

<svg height="45.361" viewBox="0 0 45.358 45.361" width="45.358" xmlns="http://www.w3.org/2000/svg"><g fill="#5c5e64" stroke="#fff" transform="translate(.5 .503)"><path d="m40.459 7.884h-15.867l3.87-5.869a1.3 1.3 0 0 0 -2.17-1.431l-4.113 6.239-4.113-6.239a1.3 1.3 0 1 0 -2.166 1.431l3.869 5.869h-15.869a3.9 3.9 0 0 0 -3.9 3.9v25.99a3.9 3.9 0 0 0 3.9 3.9h1.3v1.386a1.3 1.3 0 1 0 2.6 0v-1.388h28.76v1.386a1.3 1.3 0 1 0 2.6 0v-1.386h1.3a3.9 3.9 0 0 0 3.9-3.9v-25.989a3.9 3.9 0 0 0 -3.901-3.899zm1.3 29.889a1.3 1.3 0 0 1 -1.3 1.3h-36.559a1.3 1.3 0 0 1 -1.3-1.3v-25.99a1.3 1.3 0 0 1 1.3-1.3h36.56a1.3 1.3 0 0 1 1.3 1.3z"/><path d="m87.464 151h-26.164a1.3 1.3 0 0 0 -1.3 1.3v20.793a1.3 1.3 0 0 0 1.3 1.3h26.164a1.3 1.3 0 0 0 1.3-1.3v-20.793a1.3 1.3 0 0 0 -1.3-1.3zm-24.864 20.793v-18.193h23.564v18.194z" transform="translate(-54.802 -137.918)"/><path d="m424.568 212.3a1.3 1.3 0 1 1 -1.3-1.3 1.3 1.3 0 0 1 1.3 1.3z" transform="translate(-385.411 -192.72)"/><path d="m424.568 272.3a1.3 1.3 0 1 1 -1.3-1.3 1.3 1.3 0 0 1 1.3 1.3z" transform="translate(-385.411 -247.522)"/><path d="m424.568 332.3a1.3 1.3 0 1 1 -1.3-1.3 1.3 1.3 0 0 1 1.3 1.3z" transform="translate(-385.411 -302.324)"/></g></svg>

<svg xmlns="http://www.w3.org/2000/svg" width="45.358" height="45.361" viewBox="0 0 45.358 45.361"><defs><style>.a{fill:#5c5e64;stroke:#fff;}</style></defs><g transform="translate(-989.714 -532.711)"><g transform="translate(990.214 533.214)"><path class="a" d="M40.459,7.884H24.592l3.87-5.869A1.3,1.3,0,0,0,26.292.584L22.179,6.823,18.066.584A1.3,1.3,0,1,0,15.9,2.015l3.869,5.869H3.9a3.9,3.9,0,0,0-3.9,3.9v25.99a3.9,3.9,0,0,0,3.9,3.9H5.2v1.386a1.3,1.3,0,1,0,2.6,0V41.672H36.56v1.386a1.3,1.3,0,1,0,2.6,0V41.672h1.3a3.9,3.9,0,0,0,3.9-3.9V11.783A3.9,3.9,0,0,0,40.459,7.884Zm1.3,29.889a1.3,1.3,0,0,1-1.3,1.3H3.9a1.3,1.3,0,0,1-1.3-1.3V11.783a1.3,1.3,0,0,1,1.3-1.3h36.56a1.3,1.3,0,0,1,1.3,1.3Z" transform="translate(0 0)"/><path class="a" d="M87.464,151H61.3a1.3,1.3,0,0,0-1.3,1.3v20.793a1.3,1.3,0,0,0,1.3,1.3H87.464a1.3,1.3,0,0,0,1.3-1.3V152.3A1.3,1.3,0,0,0,87.464,151ZM62.6,171.793V153.6H86.164v18.194Z" transform="translate(-54.802 -137.918)"/><path class="a" d="M424.568,212.3a1.3,1.3,0,1,1-1.3-1.3A1.3,1.3,0,0,1,424.568,212.3Z" transform="translate(-385.411 -192.72)"/><path class="a" d="M424.568,272.3a1.3,1.3,0,1,1-1.3-1.3A1.3,1.3,0,0,1,424.568,272.3Z" transform="translate(-385.411 -247.522)"/><path class="a" d="M424.568,332.3a1.3,1.3,0,1,1-1.3-1.3A1.3,1.3,0,0,1,424.568,332.3Z" transform="translate(-385.411 -302.324)"/></g></g></svg>
